svgs/sharp-regular/h2.svg

<svg xmlns="http://www.w3.org/2000/svg" viewBox="0 0 640 512"><!--! Font Awesome Pro 6.6.0 by @fontawesome - https://fontawesome.com License - https://fontawesome.com/license (Commercial License) Copyright 2024 Fonticons, Inc. --><path d="M48 88l0-24L0 64 0 88 0 248 0 424l0 24 48 0 0-24 0-152 224 0 0 152 0 24 48 0 0-24 0-176 0-160 0-24-48 0 0 24 0 136L48 224 48 88zm442.7 24l9.2 0c42.1 0 76.2 34.1 76.2 76.2c0 21.3-8.9 41.5-24.5 56L375.7 406.4l-7.7 7.1 0 34.5 24 0 224 0 24 0 0-48-24 0-162.6 0L584.1 279.4c19.5-18 32.6-41.6 37.6-67.2l2.3 0 0-24C624 119.6 568.4 64 499.8 64l-9.2 0c-28.1 0-55.3 10.1-76.6 28.3l-29.7 25.4-18.2 15.6 31.2 36.4 18.2-15.6 29.7-25.4C457.9 118 474 112 490.7 112z"/></svg>

<svg xmlns="http://www.w3.org/2000/svg" viewBox="0 0 640 512"><!--! Font Awesome Pro 6.4.0 by @fontawesome - https://fontawesome.com License - https://fontawesome.com/license (Commercial License) Copyright 2023 Fonticons, Inc. --><path d="M48 88V64H0V88 248 424v24H48V424 272H272V424v24h48V424 248 88 64H272V88 224H48V88zm442.7 24h9.2c42.1 0 76.2 34.1 76.2 76.2c0 21.3-8.9 41.5-24.5 56L375.7 406.4l-7.7 7.1V448h24H616h24V400H616 453.4L584.1 279.4c25.5-23.5 39.9-56.6 39.9-91.2C624 119.6 568.4 64 499.8 64h-9.2c-28.1 0-55.3 10.1-76.6 28.3l-29.7 25.4-18.2 15.6 31.2 36.4 18.2-15.6 29.7-25.4C457.9 118 474 112 490.7 112z"/></svg>
